source/img/cashback-icon.svg

<svg width="145" height="110" viewBox="0 0 145 110" fill="none" xmlns="http://www.w3.org/2000/svg">
<path d="M143.71 55.1391C148.542 72.9401 139.446 84.5249 122.392 98.3702C116.139 103.739 98.4021 113.346 77.4823 108.825C51.3325 103.174 61.8495 91.0237 43.0898 74.0704C24.3302 57.117 41.3844 16.994 61.8495 8.23479C82.3145 -0.524445 106.19 -4.76278 122.392 8.23479C138.593 21.2324 138.878 37.3381 143.71 55.1391Z" fill="#F4FBFF"/>
<rect y="28.3882" width="74.0591" height="14.2193" rx="5" fill="#FFC7DB"/>
<rect x="5.92969" y="37.8989" width="55.257" height="36.5547" rx="5" transform="rotate(-20 5.92969 37.8989)" fill="#FF689E"/>
<circle cx="38.3193" cy="46.0024" r="12.2846" fill="#FFC7DB"/>
<rect x="50.7212" y="28.8916" width="3.83601" height="19.5082" rx="1" transform="rotate(-20 50.7212 28.8916)" fill="#FFC7DB"/>
<rect y="39.2847" width="77.0214" height="50.9526" rx="3" fill="#AAF0D1"/>
<path d="M0 33.7202V42.6073L6.5172 39.3487C2.07365 39.3487 0.493727 36.7813 0 33.7202Z" fill="#AAF0D1"/>
<path d="M59.2466 64.5297C59.2466 59.6215 63.2255 55.6426 68.1337 55.6426H74.9831C77.7445 55.6426 79.9831 57.8812 79.9831 60.6426V68.4168C79.9831 71.1782 77.7445 73.4168 74.9831 73.4168H68.1337C63.2255 73.4168 59.2466 69.4379 59.2466 64.5297Z" fill="#FFC7DB"/>
<circle cx="68.1343" cy="64.5293" r="4.73978" fill="#FF689E"/>
<circle cx="105" cy="28" r="14" fill="#FFC7DB"/>
<circle cx="104" cy="30" r="14" fill="#FF689E"/>
<path d="M100.289 34.1943C100.069 34.4775 99.8638 34.6875 99.6733 34.8242C99.4829 34.9609 99.2607 35.0293 99.0068 35.0293C98.7529 35.0293 98.626 34.9438 98.626 34.7729C98.626 34.6313 98.6919 34.4678 98.8237 34.2822C98.9604 34.0918 99.063 33.9526 99.1313 33.8647C99.1997 33.772 99.3486 33.584 99.5781 33.3008C104.139 27.6758 106.548 24.7144 106.807 24.4165C107.217 23.8647 107.679 23.5889 108.191 23.5889C108.431 23.5889 108.55 23.667 108.55 23.8232C108.55 24.0381 108.316 24.4531 107.847 25.0684L106.492 26.7529L102.024 32.1582L100.289 34.1943ZM101.651 28.584C101.417 28.7549 101.165 28.8916 100.896 28.9941C100.633 29.0918 100.357 29.1406 100.069 29.1406C99.7856 29.1406 99.5244 29.1016 99.2852 29.0234C99.0508 28.9404 98.8457 28.8184 98.6699 28.6572C98.3086 28.3105 98.1279 27.7979 98.1279 27.1191C98.1279 26.2988 98.4429 25.5176 99.0728 24.7754C99.7319 23.999 100.491 23.6108 101.351 23.6108C102.215 23.6108 102.789 23.9868 103.072 24.7388C103.169 24.9976 103.218 25.2808 103.218 25.5884C103.218 25.896 103.179 26.1865 103.101 26.46C103.028 26.7334 102.923 26.9995 102.786 27.2583C102.649 27.5171 102.483 27.7612 102.288 27.9907C102.098 28.2153 101.885 28.4131 101.651 28.584ZM100.047 28.335C100.301 28.335 100.569 28.1519 100.853 27.7856C101.268 27.2583 101.556 26.6113 101.717 25.8447C101.766 25.6104 101.79 25.4175 101.79 25.2661C101.79 25.1147 101.783 24.9927 101.768 24.8999C101.758 24.8022 101.736 24.7168 101.702 24.6436C101.619 24.4922 101.502 24.4165 101.351 24.4165C101.199 24.4165 101.06 24.4629 100.933 24.5557C100.806 24.6436 100.677 24.7681 100.545 24.9292C100.418 25.0854 100.293 25.2686 100.171 25.4785C100.049 25.6836 99.9395 25.9033 99.8418 26.1377C99.6367 26.6553 99.5342 27.1509 99.5342 27.6245C99.5342 28.0981 99.7051 28.335 100.047 28.335ZM104.134 33.96C104.036 33.7061 103.987 33.4253 103.987 33.1177C103.987 32.8101 104.024 32.5195 104.097 32.2461C104.175 31.9678 104.285 31.6992 104.427 31.4404C104.568 31.1816 104.737 30.9375 104.932 30.708C105.127 30.4785 105.345 30.2783 105.584 30.1074C106.102 29.7314 106.644 29.5435 107.21 29.5435C108.074 29.5435 108.648 29.9194 108.931 30.6714C109.029 30.9302 109.078 31.2134 109.078 31.521C109.078 31.8286 109.039 32.1191 108.96 32.3926C108.887 32.666 108.782 32.9321 108.646 33.1909C108.509 33.4497 108.343 33.6938 108.147 33.9233C107.957 34.1479 107.745 34.3457 107.51 34.5166C107.002 34.8877 106.475 35.0732 105.928 35.0732C105.005 35.0732 104.407 34.7021 104.134 33.96ZM105.906 34.2676C106.16 34.2676 106.429 34.0845 106.712 33.7183C107.127 33.1909 107.415 32.5439 107.576 31.7773C107.625 31.543 107.649 31.3501 107.649 31.1987C107.649 31.0474 107.642 30.9253 107.627 30.8325C107.618 30.7349 107.596 30.6494 107.562 30.5762C107.479 30.4248 107.361 30.3491 107.21 30.3491C107.059 30.3491 106.919 30.3955 106.792 30.4883C106.666 30.5762 106.536 30.7007 106.404 30.8618C106.277 31.0181 106.153 31.2012 106.031 31.4111C105.909 31.6162 105.799 31.8359 105.701 32.0703C105.496 32.5879 105.394 33.0835 105.394 33.5571C105.394 34.0308 105.564 34.2676 105.906 34.2676Z" fill="white"/>
</svg>

<svg width="145" height="110" fill="none" xmlns="http://www.w3.org/2000/svg"><path d="M143.71 55.14c4.832 17.8-4.264 29.385-21.318 43.23-6.253 5.369-23.99 14.976-44.91 10.455-26.15-5.651-15.633-17.801-34.392-34.755-18.76-16.953-1.706-57.076 18.76-65.835 20.464-8.76 44.34-12.998 60.542 0 16.201 12.997 16.486 29.103 21.318 46.904z" fill="#F4FBFF"/><rect y="28.388" width="74.059" height="14.219" rx="5" fill="#FFC7DB"/><rect x="5.93" y="37.899" width="55.257" height="36.555" rx="5" transform="rotate(-20 5.93 37.899)" fill="#FF689E"/><circle cx="38.319" cy="46.002" r="12.285" fill="#FFC7DB"/><rect x="50.721" y="28.892" width="3.836" height="19.508" rx="1" transform="rotate(-20 50.721 28.892)" fill="#FFC7DB"/><rect y="39.285" width="77.021" height="50.953" rx="3" fill="#AAF0D1"/><path d="M0 33.72v8.887l6.517-3.258C2.074 39.349.494 36.78 0 33.72z" fill="#AAF0D1"/><path d="M59.247 64.53a8.887 8.887 0 018.887-8.887h6.85a5 5 0 015 5v7.774a5 5 0 01-5 5h-6.85a8.887 8.887 0 01-8.887-8.887z" fill="#FFC7DB"/><circle cx="68.134" cy="64.529" r="4.74" fill="#FF689E"/><circle cx="105" cy="28" r="14" fill="#FFC7DB"/><circle cx="104" cy="30" r="14" fill="#FF689E"/><path d="M100.289 34.194c-.22.283-.425.493-.616.63-.19.137-.412.205-.666.205-.254 0-.381-.085-.381-.256 0-.142.066-.305.198-.49.136-.191.239-.33.307-.418.069-.093.218-.281.447-.564 4.561-5.625 6.97-8.587 7.229-8.885.41-.551.872-.827 1.384-.827.24 0 .359.078.359.234 0 .215-.234.63-.703 1.245l-1.355 1.685-4.468 5.405-1.735 2.036zm1.362-5.61c-.234.17-.486.308-.755.41a2.357 2.357 0 01-.827.147 2.51 2.51 0 01-.784-.118 1.777 1.777 0 01-.615-.366c-.361-.346-.542-.86-.542-1.538 0-.82.315-1.601.945-2.344.659-.776 1.418-1.164 2.278-1.164.864 0 1.438.376 1.721 1.128.097.259.146.542.146.85 0 .307-.039.598-.117.871-.073.273-.178.54-.315.798a4.07 4.07 0 01-.498.733c-.19.224-.403.422-.637.593zm-1.604-.249c.254 0 .522-.183.806-.55.415-.527.703-1.174.864-1.94.049-.235.073-.427.073-.579a2.4 2.4 0 00-.022-.366.799.799 0 00-.066-.256c-.083-.152-.2-.227-.351-.227a.692.692 0 00-.418.139 1.96 1.96 0 00-.388.373c-.127.156-.252.34-.374.55a5.201 5.201 0 00-.33.659 4.033 4.033 0 00-.307 1.486c0 .474.171.711.513.711zm4.087 5.625a2.321 2.321 0 01-.147-.842c0-.308.037-.599.11-.872.078-.278.188-.547.33-.806a4.33 4.33 0 01.505-.732c.195-.23.413-.43.652-.6.518-.377 1.06-.564 1.626-.564.864 0 1.438.375 1.721 1.127.098.26.147.542.147.85 0 .308-.039.598-.118.872-.073.273-.178.54-.314.798a4.024 4.024 0 01-.499.732c-.19.225-.402.423-.637.594-.508.37-1.035.556-1.582.556-.923 0-1.521-.37-1.794-1.113zm1.772.308c.254 0 .523-.184.806-.55.415-.527.703-1.174.864-1.94.049-.235.073-.428.073-.58 0-.15-.007-.273-.022-.366a.775.775 0 00-.065-.256c-.083-.151-.201-.227-.352-.227a.694.694 0 00-.418.14 1.988 1.988 0 00-.388.373 4.27 4.27 0 00-.373.55 5.244 5.244 0 00-.33.658 4.033 4.033 0 00-.307 1.487c0 .474.17.71.512.71z" fill="#fff"/></svg>
